src/pos-icons/airballoon.svg

<svg height="24" viewBox="0 0 24 24" width="24" xmlns="http://www.w3.org/2000/svg"><path d="m11 23a2 2 0 0 1 -2-2v-2h6v2a2 2 0 0 1 -2 2zm1-22c.71 0 1.39.09 2.05.26 1.17 1.57 1.95 4.45 1.95 7.74 0 2.28-.38 4.37-1 7a2 2 0 0 1 -2 2h-2a2 2 0 0 1 -2-2c-.62-2.63-1-4.72-1-7 0-3.29.78-6.17 1.95-7.74.66-.17 1.34-.26 2.05-.26m8 7c0 3.18-1.85 7.92-4.54 9.21.95-1.82 1.54-5.38 1.54-8.21s-.59-5.39-1.54-7.21c2.69 1.29 4.54 3.03 4.54 6.21m-16 0c0-3.18 1.85-4.92 4.54-6.21-.95 1.82-1.54 4.38-1.54 7.21s.59 6.39 1.54 8.21c-2.69-1.29-4.54-6.03-4.54-9.21z"/></svg>

<?xml version="1.0" encoding="UTF-8"?><!DOCTYPE svg PUBLIC "-//W3C//DTD SVG 1.1//EN" "http://www.w3.org/Graphics/SVG/1.1/DTD/svg11.dtd"><svg xmlns="http://www.w3.org/2000/svg" xmlns:xlink="http://www.w3.org/1999/xlink" version="1.1" id="mdi-airballoon" width="24" height="24" viewBox="0 0 24 24"><path d="M11,23A2,2 0 0,1 9,21V19H15V21A2,2 0 0,1 13,23H11M12,1C12.71,1 13.39,1.09 14.05,1.26C15.22,2.83 16,5.71 16,9C16,11.28 15.62,13.37 15,16A2,2 0 0,1 13,18H11A2,2 0 0,1 9,16C8.38,13.37 8,11.28 8,9C8,5.71 8.78,2.83 9.95,1.26C10.61,1.09 11.29,1 12,1M20,8C20,11.18 18.15,15.92 15.46,17.21C16.41,15.39 17,11.83 17,9C17,6.17 16.41,3.61 15.46,1.79C18.15,3.08 20,4.82 20,8M4,8C4,4.82 5.85,3.08 8.54,1.79C7.59,3.61 7,6.17 7,9C7,11.83 7.59,15.39 8.54,17.21C5.85,15.92 4,11.18 4,8Z" /></svg>
